public/icons/tokens/xsushi.svg

<svg width="256" height="256" viewBox="0 0 256 256" fill="none" xmlns="http://www.w3.org/2000/svg">
    <path d="M128 256C198.692 256 256 198.692 256 128C256 57.3075 198.692 0 128 0C57.3075 0 0 57.3075 0 128C0 198.692 57.3075 256 128 256Z" fill="white"/>
    <path fill-rule="evenodd" clip-rule="evenodd" d="M212.384 153.039L178.814 199.834C173.533 207.266 163.291 210.844 149.97 209.748C132.79 208.33 110.017 199.247 88.1847 183.592C66.3527 167.937 50.4391 149.265 43.5011 133.464C38.2201 121.218 38.3013 110.405 43.6613 102.964L77.1535 56.1695C82.5125 48.7395 92.7533 45.1604 105.993 46.2554C123.177 47.6744 146.033 56.7615 167.861 72.4195C189.689 88.0775 205.608 106.74 212.458 122.54C217.817 134.787 217.658 145.606 212.38 153.04L212.384 153.039ZM86.1379 62.6021C89.6029 57.7941 96.5381 56.5493 105.13 57.2583C120.814 58.5513 141.462 67.0942 161.4 81.3882C181.338 95.6822 196.071 112.516 202.376 126.938C205.763 134.838 206.869 141.81 203.4 146.617L169.829 193.412C166.442 198.212 159.505 199.464 150.915 198.746C135.231 197.462 114.509 188.912 94.5715 174.625C74.6335 160.338 59.897 143.488 53.673 129.076C50.204 121.163 49.1807 114.196 52.6457 109.395L86.1379 62.6021Z" fill="white"/>
    <path fill-rule="evenodd" clip-rule="evenodd" d="M81.7134 60.5235C92.6704 45.2365 129.786 53.0852 164.612 78.0352C199.438 102.985 218.834 135.673 207.877 150.961L174.385 197.756C163.432 213.045 126.241 205.195 91.4048 180.238C56.5688 155.281 37.1823 122.606 48.1353 107.318L81.7134 60.5235Z" fill="white"/>
    <path fill-rule="evenodd" clip-rule="evenodd" d="M79.2973 57.6934C84.1683 50.8734 93.5859 47.8658 105.774 48.8418C122.587 50.2248 144.837 59.2419 166.274 74.5059C187.633 89.8579 203.308 108.131 209.973 123.561C214.848 134.768 215.008 144.677 210.133 151.498L176.672 198.279C171.801 205.099 162.302 208.107 150.2 207.135C133.384 205.674 111.052 196.735 89.6918 181.389C68.2508 166.119 52.6565 147.842 45.9145 132.412C41.0435 121.205 40.8833 111.299 45.7543 104.479L79.2973 57.6934ZM205.508 148.092C209.408 142.729 208.594 134.768 204.774 125.834C198.36 111.134 183.337 93.8378 162.868 79.2208C142.481 64.5998 121.286 55.9114 105.286 54.6114C95.5396 53.7994 87.8242 55.5884 83.9262 61.0254L83.7621 61.3536C80.1061 66.7946 80.9217 74.5093 84.7387 83.2833C91.1527 98.0643 106.18 115.36 126.563 129.982C146.946 144.604 168.149 153.296 184.145 154.592C193.731 155.322 201.282 153.615 205.262 148.502L205.508 148.092ZM153.368 92.4551C163.598 99.7641 171.149 108.459 174.321 115.85C176.188 119.991 176.673 123.646 174.805 126.162C173.02 128.678 169.364 129.412 164.899 129.006C156.86 128.354 146.299 123.967 136.067 116.658C125.835 109.349 118.282 100.741 115.11 93.3497C113.329 89.2047 112.836 85.5493 114.625 83.0333C116.414 80.5173 120.071 79.7874 124.618 80.1114C132.576 80.8404 143.211 85.1471 153.368 92.4551Z" fill="#0E0F23"/>
    <path fill-rule="evenodd" clip-rule="evenodd" d="M70.126 165.134C58.767 154.111 50.401 142.654 45.953 132.406C41.09 121.206 40.918 111.306 45.793 104.498L79.327 57.703C84.202 50.903 93.633 47.88 105.806 48.884C122.613 50.27 144.906 59.225 166.298 74.556C187.69 89.887 203.338 108.116 210.056 123.586C210.637 124.927 211.151 126.248 211.598 127.549C209.771 126.634 207.786 126.076 205.75 125.904C205.417 125.87 205.085 125.846 204.76 125.832C198.345 111.092 183.327 93.832 162.95 79.232C142.55 64.615 121.356 55.938 105.333 54.617C95.6161 53.817 87.895 55.622 84.004 61.053L83.77 61.379C80.138 66.797 80.953 74.554 84.759 83.321C91.159 98.071 106.19 115.35 126.59 129.968C143.184 141.859 160.3 149.818 174.734 153.085C168.879 161.297 162.578 168.585 154.288 170.241C147.058 171.682 139.913 168.434 133.374 161.041C126.579 153.365 121.053 142.432 113.274 140.67C99.32 137.51 86.874 161.52 73.068 164.645C72.098 164.867 71.1156 165.03 70.126 165.134ZM153.439 92.502C163.649 99.816 171.188 108.445 174.394 115.825C176.2 119.986 176.694 123.652 174.884 126.179C173.074 128.706 169.445 129.415 164.924 129.042C156.905 128.38 146.309 124.014 136.101 116.698C125.893 109.382 118.349 100.755 115.149 93.374C113.343 89.213 112.849 85.547 114.657 83.02C116.465 80.493 120.099 79.785 124.62 80.157C132.639 80.819 143.231 85.187 153.439 92.502Z" fill="#FFB260"/>
    <path fill-rule="evenodd" clip-rule="evenodd" d="M176.077 161.006C181.699 162.082 187.457 162.246 193.131 161.49C193.452 161.44 193.743 161.267 193.94 161.01C194.137 160.752 194.225 160.43 194.19 160.108C194.128 159.793 193.952 159.513 193.698 159.318C193.443 159.124 193.127 159.03 192.807 159.053C187.377 159.809 181.859 159.645 176.483 158.568C176.161 158.533 175.838 158.622 175.581 158.818C175.324 159.015 175.154 159.303 175.104 159.623C175.053 159.935 175.125 160.255 175.307 160.514C175.489 160.772 175.766 160.949 176.077 161.006ZM166.495 158.889C168.12 159.299 169.663 159.701 171.284 160.029C171.434 160.071 171.591 160.08 171.745 160.057C171.899 160.033 172.047 159.977 172.178 159.893C172.309 159.808 172.418 159.699 172.502 159.568C172.587 159.438 172.643 159.289 172.667 159.135C172.704 158.98 172.711 158.82 172.686 158.662C172.661 158.505 172.605 158.353 172.522 158.217C172.439 158.081 172.331 157.963 172.202 157.869C172.073 157.776 171.927 157.711 171.772 157.674C170.229 157.35 168.686 156.944 167.143 156.537C166.989 156.482 166.826 156.459 166.663 156.471C166.499 156.482 166.339 156.527 166.194 156.604C166.049 156.68 165.921 156.788 165.819 156.916C165.717 157.044 165.642 157.191 165.6 157.35C165.534 157.671 165.587 158.007 165.752 158.291C165.918 158.575 166.182 158.787 166.495 158.889ZM75.7759 81.9825C80.3229 100.577 98.1899 117.96 112.565 130.303C112.681 130.413 112.818 130.497 112.967 130.553C113.117 130.608 113.277 130.635 113.436 130.627C113.596 130.619 113.753 130.576 113.897 130.506C114.041 130.436 114.168 130.338 114.272 130.217C114.376 130.096 114.454 129.955 114.502 129.803C114.551 129.651 114.568 129.493 114.553 129.334C114.538 129.175 114.489 129.021 114.413 128.881C114.336 128.741 114.233 128.616 114.108 128.518C100.139 116.418 82.5975 99.5172 78.2095 81.4122C78.1158 81.094 77.903 80.8242 77.6157 80.6583C77.3285 80.4924 76.9889 80.4436 76.6665 80.5216C76.512 80.5589 76.3652 80.6271 76.2368 80.7208C76.1085 80.8145 75.9991 80.9327 75.9165 81.0684C75.8339 81.2042 75.7806 81.3528 75.7563 81.5099C75.7321 81.6669 75.738 81.8282 75.7759 81.9825ZM74.7173 74.5099C74.7173 75.3229 74.7993 76.2164 74.8813 77.0294C74.9328 77.3482 75.1053 77.6339 75.3618 77.8302C75.6183 78.0264 75.9391 78.1178 76.2603 78.0841C76.4152 78.0683 76.5646 78.0212 76.7017 77.9474C76.8387 77.8735 76.9588 77.7751 77.0571 77.6544C77.1555 77.5336 77.2313 77.3934 77.2759 77.2442C77.3205 77.095 77.3348 76.9382 77.3188 76.7833C77.2368 75.9713 77.1548 75.1578 77.1548 74.4278C77.1554 74.2606 77.1233 74.097 77.0571 73.9434C76.991 73.7899 76.894 73.6516 76.772 73.5372C76.65 73.4228 76.5037 73.3355 76.3462 73.2794C76.1887 73.2232 76.0208 73.1977 75.854 73.2091C75.5399 73.2528 75.2544 73.408 75.0454 73.6466C74.8364 73.8851 74.7193 74.1927 74.7173 74.5099Z" fill="white"/>
</svg>

<svg width="256" height="256" fill="none" xmlns="http://www.w3.org/2000/svg"><path d="M128 256c70.692 0 128-57.308 128-128C256 57.308 198.692 0 128 0 57.308 0 0 57.307 0 128c0 70.692 57.307 128 128 128Z" fill="#fff"/><path fill-rule="evenodd" clip-rule="evenodd" d="m212.384 153.039-33.57 46.795c-5.281 7.432-15.523 11.01-28.844 9.914-17.18-1.418-39.953-10.501-61.785-26.156-21.832-15.655-37.746-34.327-44.684-50.128-5.28-12.246-5.2-23.059.16-30.5L77.153 56.17c5.36-7.43 15.6-11.01 28.84-9.915 17.184 1.42 40.04 10.506 61.868 26.164 21.828 15.659 37.747 34.321 44.597 50.121 5.359 12.247 5.2 23.066-.078 30.5l.004-.001ZM86.138 62.602c3.465-4.808 10.4-6.053 18.992-5.344 15.684 1.293 36.332 9.836 56.27 24.13 19.938 14.294 34.671 31.128 40.976 45.55 3.387 7.9 4.493 14.872 1.024 19.679l-33.571 46.795c-3.387 4.8-10.324 6.052-18.914 5.334-15.684-1.284-36.406-9.834-56.343-24.121-19.939-14.287-34.675-31.137-40.899-45.549-3.469-7.913-4.492-14.88-1.027-19.681l33.492-46.793Z" fill="#fff"/><path fill-rule="evenodd" clip-rule="evenodd" d="M81.713 60.523c10.957-15.287 48.073-7.438 82.899 17.512s54.222 57.638 43.265 72.926l-33.492 46.795c-10.953 15.289-48.144 7.439-82.98-17.518-34.836-24.957-54.223-57.632-43.27-72.92l33.578-46.794Z" fill="#fff"/><path fill-rule="evenodd" clip-rule="evenodd" d="M79.297 57.693c4.871-6.82 14.289-9.827 26.477-8.851 16.813 1.383 39.063 10.4 60.5 25.664 21.359 15.352 37.034 33.625 43.699 49.055 4.875 11.207 5.035 21.116.16 27.937l-33.461 46.781c-4.871 6.82-14.37 9.828-26.472 8.856-16.816-1.461-39.148-10.4-60.508-25.746-21.441-15.27-37.035-33.547-43.777-48.977-4.871-11.207-5.032-21.113-.16-27.933l33.542-46.786Zm126.211 90.399c3.9-5.363 3.086-13.324-.734-22.258-6.414-14.7-21.437-31.996-41.906-46.613-20.387-14.621-41.582-23.31-57.582-24.61-9.746-.812-17.462.977-21.36 6.414l-.164.329c-3.656 5.44-2.84 13.155.977 21.93 6.414 14.78 21.441 32.076 41.824 46.698s41.586 23.314 57.582 24.61c9.586.73 17.137-.977 21.117-6.09l.246-.41Zm-52.14-55.637c10.23 7.31 17.781 16.004 20.953 23.395 1.867 4.141 2.352 7.796.484 10.312-1.785 2.516-5.441 3.25-9.906 2.844-8.039-.652-18.6-5.039-28.832-12.348-10.232-7.309-17.785-15.917-20.957-23.308-1.781-4.145-2.274-7.8-.485-10.317 1.789-2.516 5.446-3.246 9.993-2.922 7.958.73 18.593 5.036 28.75 12.344Z" fill="#0E0F23"/><path fill-rule="evenodd" clip-rule="evenodd" d="M70.126 165.134c-11.359-11.023-19.725-22.48-24.173-32.728-4.863-11.2-5.035-21.1-.16-27.908l33.534-46.795c4.875-6.8 14.306-9.823 26.479-8.819 16.807 1.386 39.1 10.341 60.492 25.672 21.392 15.331 37.04 33.56 43.758 49.03a54.62 54.62 0 0 1 1.542 3.963 16.083 16.083 0 0 0-5.848-1.645 16.96 16.96 0 0 0-.99-.072c-6.415-14.74-21.433-32-41.81-46.6-20.4-14.617-41.594-23.294-57.617-24.615-9.717-.8-17.438 1.005-21.329 6.436l-.234.326c-3.632 5.418-2.817 13.175.989 21.942 6.4 14.75 21.431 32.029 41.831 46.647 16.594 11.891 33.71 19.85 48.144 23.117-5.855 8.212-12.156 15.5-20.446 17.156-7.23 1.441-14.375-1.807-20.914-9.2-6.795-7.676-12.321-18.609-20.1-20.371-13.954-3.16-26.4 20.85-40.206 23.975-.97.222-1.952.385-2.942.489Zm83.313-72.632c10.21 7.314 17.749 15.943 20.955 23.323 1.806 4.161 2.3 7.827.49 10.354-1.81 2.527-5.439 3.236-9.96 2.863-8.019-.662-18.615-5.028-28.823-12.344-10.208-7.316-17.752-15.943-20.952-23.324-1.806-4.161-2.3-7.827-.492-10.354 1.808-2.527 5.442-3.235 9.963-2.863 8.019.662 18.611 5.03 28.819 12.345Z" fill="#FFB260"/><path fill-rule="evenodd" clip-rule="evenodd" d="M176.077 161.006a53.283 53.283 0 0 0 17.054.484 1.259 1.259 0 0 0 1.059-1.382 1.314 1.314 0 0 0-1.383-1.055 48.824 48.824 0 0 1-16.324-.485 1.257 1.257 0 0 0-1.379 1.055 1.21 1.21 0 0 0 .203.891c.182.258.459.435.77.492Zm-9.582-2.117c1.625.41 3.168.812 4.789 1.14a1.104 1.104 0 0 0 .894-.136 1.104 1.104 0 0 0 .489-.758 1.215 1.215 0 0 0-.465-1.266 1.215 1.215 0 0 0-.43-.195c-1.543-.324-3.086-.73-4.629-1.137a1.17 1.17 0 0 0-.48-.066 1.166 1.166 0 0 0-.844.445 1.18 1.18 0 0 0-.219.434c-.066.321-.013.657.152.941.166.284.43.496.743.598Zm-90.72-76.907c4.548 18.595 22.415 35.978 36.79 48.321a1.192 1.192 0 0 0 .871.324 1.195 1.195 0 0 0 .836-.41 1.18 1.18 0 0 0 .141-1.336 1.187 1.187 0 0 0-.305-.363c-13.969-12.1-31.51-29-35.898-47.106a1.292 1.292 0 0 0-1.543-.89 1.215 1.215 0 0 0-.75.546 1.211 1.211 0 0 0-.14.914Zm-1.058-7.472c0 .813.082 1.706.164 2.52a1.261 1.261 0 0 0 1.379 1.055 1.185 1.185 0 0 0 .797-.43 1.185 1.185 0 0 0 .262-.871c-.082-.813-.164-1.626-.164-2.356a1.207 1.207 0 0 0-.809-1.149 1.22 1.22 0 0 0-.492-.07 1.325 1.325 0 0 0-1.137 1.3Z" fill="#fff"/></svg>
